X: 1
T:Dundee Mil Tattoo  "rpband"
M:C|
L:1/8
Q:80
C:
S:2/4 March
K:HP
|: e|
{g}A2{GdGe}A3/2{d}c/2|
{g}e3/4c/4{g}e3/4f/4{gef}e{g}c|
{ag}a2{g}a3/2e/2|  !
{g}f3/4e/4{g}f/4a3/4{fg}f{g}e|
{g}A2{GdGe}A3/2{d}c/2|
{g}e3/4c/4{g}e3/4f/4{gef}e{g}c|  !
{ag}ac{gef}e3/4d/4{g}B/4{d}G3/4|
{g}A2{GAG}A:| |:
{g}e|  !
{ag}a2{g}a3/2e/2|
{g}f3/4e/4{g}f/4a3/4{fg}f{g}e|
{ag}a2{g}a3/2e/2|  !
{g}f3/4e/4{gde}d3/4c/4{gBd}B{g}e|1
{ag}a2{g}a3/2e/2|
{g}f3/4e/4{g}f/4a3/4{fg}f{g}e|  !
{ag}ac{gef}e3/4d/4{g}B/4{d}G3/4|
{g}A2{GAG}A:|2
{g}A2{GdGe}A3/2{d}c/2|  !
{g}e3/4c/4{g}e3/4f/4{gef}e{g}c|
{ag}ac{gef}e3/4d/4{g}B/4{d}G3/4|
{g}A2{GAG}A|] |:  !
{gcd}c3/4B/4|
{g}A{d}c{g}A3/2{d}c/2|
{g}e3/4c/4{g}e3/4f/4{gef}e{g}c|  !
{ag}ae{ag}a3/2e/2|
{g}f3/4e/4{gde}d3/4c/4{g}B3/4c/4{gde}d3/4B/4| |
{g}A{d}c{g}A3/2{d}c/2|  !
{g}e3/4c/4{g}e3/4f/4{gef}e{g}c|
{ag}ac{gef}e3/4d/4{g}B/4{d}G3/4|
{g}A2{GAG}A:| |:  !
{gef}c3/4B/4|
{g}A3/4{d}c/4{gef}e3/4c/4{ag}ae|
{g}f3/4e/4{g}d3/4e/4{gfg}f{g}e|  !
{gef}c3/4B/4{g}A3/4B/4{gcd}c{gef}e|
{g}B3/4c/4{gde}d3/4c/4{gBd}B{gcd}c3/4B/4|1 |
{g}A3/4{d}c/4{gef}e3/4c/4{ag}ae|  !
{g}f3/4e/4{g}d3/4e/4{gfg}f{g}e|
{ag}ac{gef}e3/4d/4{g}B/4{d}G3/4|
{g}A2{GAG}A:|2 |  !
{g}A2{GdGe}A3/2{d}c/2|
{g}e3/4c/4{g}e3/4f/4{gef}e{g}c|
{ag}ac{gef}e3/4d/4{g}B/4{d}G3/4|  !
{g}A2{GAG}A2|]
